X:136
T:Somewhere Over The Rainbow
C:arr. John Reischmann
N:TablEdited by Mike Perry
L:1/8
Q:1/4=104
M:4/4
K:G
"G"[G4B,4] "Em"[g4d4A4] | "Bm"[d2G2] de [f2B2G2] "G7"[g2B2=F2] | 
"C"A,C E2 G,[AC] [e2c2A2C2] | D[gdE] z[gdE] "G"[f2B2G2] G,E | "C"A,C [c2E2C2] "Cm"A,C [c2^D2C2] | 
"G"[B2G2G,2] GA "E"[B2^G2B,2] [c2G2B,2] | "A7"[A3E3C3]A A2 [B2D2C2] | "G"G,B, DC e[dF] [d2F2] | 
"G"[G4B,4] "Em"[g4d4A4] | "Am"[d2G2] de [f2B2G2] "G7"[g2B2=F2] | "C"A,C E2 G,[AC] [e2c2A2C2] | 
[d2A2B,2] ed "G"[d2A2B,2] e[dAB,] | "C"G,[cEC] zG, "Cm"[c2E2C2] [c2^D2A,2] | "G"[B2G2D2] GA "E"[B2^G2B,2] [c2G2B,2] | 
"A7"[A2E2C2] A[AF] CF [BFC]C | "G"G,[BGB,] z[BGB,] [BGB,]z [DG,]d | "G"[BGB,]d Bd Bd Bd | 
"Am"[cEA,]d cd [c2F2C2] "D7"[dFC]z | "G"[d2A2B,2] ed [d2A2B,2] ed | [e2G2D2] ec [c2G2D2] "D7"[cGD][cGD] | 
"G"[fBG]d Bd Bd BA | "Edim"[^cE^A,]e ce ce ce | "A7"[d3F3A,3]A [f4^c4F4] | [a4e4c4] "D7"[e4F4C4] | 
"G"[G4B,4] "Em"[g4d4A4] | "Bm"[d2G2] de [f2B2G2] "G7"[g2B2=F2] | "C"A,C E2 G,[AC] [e2c2A2C2] | 
[d2A2B,2] dd "G"[d^GB,]d DB, | "C"G,/C3/2 [B2E2C2] "Cm"[c4G4A,4] | "G"[BGD]G A[BGD] "E7"z[c^GB,] z2 | 
"D7"[A2E2C2] AF "Am"CA "D7"[B2F2C2] | "G"G,[BGB,] zD "Eb"[g3d3^D3]G, | [d2^D2^A,2] "G"=D^D z=D EF | 
{F}GB {=f}^fd BG FA | GD {^A,}B,G, z4 | 


